public/img/dinner.svg

<svg width="101" height="100" viewBox="0 0 101 100" fill="none" xmlns="http://www.w3.org/2000/svg">
<mask id="mask0_189_2135" style="mask-type:alpha" maskUnits="userSpaceOnUse" x="0" y="0" width="101" height="100">
<rect x="0.5" width="100" height="100" fill="#D9D9D9"/>
</mask>
<g mask="url(#mask0_189_2135)">
<path d="M50.5001 95.8333C44.1806 95.8333 38.2431 94.6354 32.6876 92.2396C27.132 89.8438 22.2709 86.5625 18.1042 82.3958C13.9376 78.2292 10.6563 73.3681 8.2605 67.8125C5.86466 62.2569 4.66675 56.3194 4.66675 50C4.66675 43.6806 5.86466 37.7431 8.2605 32.1875C10.6563 26.6319 13.9376 21.7708 18.1042 17.6042C22.2709 13.4375 27.132 10.1563 32.6876 7.76042C38.2431 5.36459 44.1806 4.16667 50.5001 4.16667C56.8195 4.16667 62.757 5.36459 68.3126 7.76042C73.8681 10.1563 78.7292 13.4375 82.8959 17.6042C87.0626 21.7708 90.3438 26.6319 92.7397 32.1875C95.1355 37.7431 96.3334 43.6806 96.3334 50C96.3334 56.3194 95.1355 62.2569 92.7397 67.8125C90.3438 73.3681 87.0626 78.2292 82.8959 82.3958C78.7292 86.5625 73.8681 89.8438 68.3126 92.2396C62.757 94.6354 56.8195 95.8333 50.5001 95.8333ZM50.5001 87.5C60.9167 87.5 69.7709 83.8542 77.0626 76.5625C84.3542 69.2708 88.0001 60.4167 88.0001 50C88.0001 39.5833 84.3542 30.7292 77.0626 23.4375C69.7709 16.1458 60.9167 12.5 50.5001 12.5C40.0834 12.5 31.2292 16.1458 23.9376 23.4375C16.6459 30.7292 13.0001 39.5833 13.0001 50C13.0001 60.4167 16.6459 69.2708 23.9376 76.5625C31.2292 83.8542 40.0834 87.5 50.5001 87.5ZM50.5001 79.1667C58.6251 79.1667 65.5174 76.3368 71.1772 70.6771C76.8369 65.0174 79.6667 58.125 79.6667 50C79.6667 41.875 76.8369 34.9826 71.1772 29.3229C65.5174 23.6632 58.6251 20.8333 50.5001 20.8333C48.4862 20.8333 46.6112 21.2674 44.8751 22.1354C43.139 23.0035 41.6806 24.2361 40.5001 25.8333C38.5556 25.6944 36.6459 25.9028 34.7709 26.4583C32.8959 27.0139 31.264 27.9861 29.8751 29.375C28.4862 30.7639 27.4792 32.3958 26.8542 34.2708C26.2292 36.1458 26.0556 38.0556 26.3334 40C24.7362 41.1806 23.5036 42.6389 22.6355 44.375C21.7674 46.1111 21.3334 47.9861 21.3334 50C21.3334 52.0139 21.7674 53.8889 22.6355 55.625C23.5036 57.3611 24.7362 58.8194 26.3334 60C26.0556 61.9444 26.2292 63.8542 26.8542 65.7292C27.4792 67.6042 28.4862 69.2361 29.8751 70.625C31.264 72.0139 32.8959 73.0382 34.7709 73.6979C36.6459 74.3576 38.5556 74.5139 40.5001 74.1667C41.6806 75.7639 43.139 76.9965 44.8751 77.8646C46.6112 78.7326 48.4862 79.1667 50.5001 79.1667ZM50.5001 70.8333C48.9723 70.8333 47.7917 70.191 46.9584 68.9063C46.1251 67.6215 45.2223 66.3889 44.2501 65.2083C42.7223 65.4167 41.1945 65.6771 39.6667 65.9896C38.139 66.3021 36.8195 65.9028 35.7084 64.7917C34.5973 63.6806 34.198 62.3611 34.5105 60.8333C34.823 59.3056 35.0834 57.7778 35.2917 56.25C34.1112 55.3472 32.8786 54.4618 31.5938 53.5938C30.3091 52.7257 29.6667 51.5278 29.6667 50C29.6667 48.4722 30.3091 47.2917 31.5938 46.4583C32.8786 45.625 34.1112 44.7222 35.2917 43.75C35.0834 42.2222 34.823 40.6945 34.5105 39.1667C34.198 37.6389 34.5973 36.3194 35.7084 35.2083C36.8195 34.0972 38.139 33.6979 39.6667 34.0104C41.1945 34.3229 42.7223 34.5833 44.2501 34.7917C45.1529 33.6111 46.0383 32.3785 46.9063 31.0938C47.7744 29.809 48.9723 29.1667 50.5001 29.1667V70.8333ZM63.0001 66.6667L57.1667 60.8333L63.0001 54.8958L68.8334 60.8333L63.0001 66.6667ZM65.2917 46.7708L56.5417 37.9167C57.7223 36.7361 59.1806 36.1285 60.9167 36.0938C62.6529 36.059 64.1112 36.6667 65.2917 37.9167C66.4723 39.0972 67.0799 40.5729 67.1147 42.3438C67.1494 44.1146 66.5417 45.5903 65.2917 46.7708Z" fill="#33B148"/>
</g>
</svg>

<svg xmlns="http://www.w3.org/2000/svg" width="101" height="100" fill="none"><mask id="a" width="101" height="100" x="0" y="0" maskUnits="userSpaceOnUse" style="mask-type:alpha"><path fill="#D9D9D9" d="M.5 0h100v100H.5z"/></mask><g mask="url(#a)"><path fill="#33B148" d="M50.5 95.833q-9.48 0-17.812-3.593-8.334-3.594-14.584-9.844T8.261 67.813 4.667 50 8.26 32.188t9.843-14.584T32.688 7.76 50.5 4.167 68.313 7.76q8.333 3.595 14.583 9.844 6.25 6.25 9.844 14.584T96.333 50 92.74 67.813t-9.844 14.583-14.583 9.844T50.5 95.833m0-8.333q15.624 0 26.563-10.937Q88 65.625 88 50T77.063 23.438 50.5 12.5 23.938 23.438 13 50t10.938 26.563T50.5 87.5m0-8.333q12.187 0 20.677-8.49T79.667 50t-8.49-20.677q-8.49-8.49-20.677-8.49-3.021 0-5.625 1.302a12.1 12.1 0 0 0-4.375 3.698 16 16 0 0 0-5.73.625 11.4 11.4 0 0 0-4.895 2.917 12.35 12.35 0 0 0-3.02 4.896A12.35 12.35 0 0 0 26.332 40a12.1 12.1 0 0 0-3.697 4.375Q21.333 46.979 21.333 50t1.303 5.625A12.1 12.1 0 0 0 26.333 60a12.35 12.35 0 0 0 .521 5.73 12.35 12.35 0 0 0 3.021 4.895 12.9 12.9 0 0 0 4.896 3.073q2.813.99 5.73.469a12.1 12.1 0 0 0 4.374 3.698q2.604 1.302 5.625 1.302m0-8.334q-2.291 0-3.542-1.927a40 40 0 0 0-2.708-3.698 70 70 0 0 0-4.583.782q-2.292.468-3.959-1.198-1.666-1.666-1.197-3.959.468-2.29.78-4.583a78 78 0 0 0-3.697-2.656Q29.667 52.292 29.667 50t1.927-3.542a40 40 0 0 0 3.698-2.708 70 70 0 0 0-.782-4.583q-.468-2.292 1.198-3.959 1.667-1.666 3.959-1.198 2.29.469 4.583.782a78 78 0 0 0 2.656-3.698q1.302-1.927 3.594-1.927zM63 66.667l-5.833-5.834L63 54.896l5.833 5.937zm2.292-19.896-8.75-8.854q1.77-1.77 4.375-1.823t4.375 1.823q1.77 1.77 1.823 4.427.052 2.655-1.823 4.427"/></g></svg>
